<?xml version="1.0" encoding="UTF-8"?>
<map version="1.10" tiledversion="1.10.2" orientation="orthogonal" renderorder="right-down" width="15" height="11" tilewidth="32" tileheight="32" infinite="0" nextlayerid="4" nextobjectid="221">
 <editorsettings>
  <export target="../level_17.lua" format="lua"/>
 </editorsettings>
 <tileset firstgid="1" name="tileset" tilewidth="32" tileheight="32" tilecount="28" columns="7">
  <image source="../../sprites/ground/tileset.png" width="224" height="128"/>
 </tileset>
 <layer id="1" name="Ground" width="15" height="11">
  <data encoding="csv">
1,1,1,1,1,1,1,1,1,1,1,1,1,1,1,
1,0,0,0,0,0,0,0,0,0,0,0,0,0,1,
1,0,0,0,0,0,0,0,0,0,0,0,0,0,1,
1,0,0,0,0,0,0,0,0,0,0,0,0,0,1,
1,0,0,0,0,0,0,0,0,0,0,0,0,0,1,
1,0,0,0,0,0,0,0,0,0,0,0,0,0,1,
8,0,0,0,0,0,0,0,0,0,0,0,0,0,1,
15,0,0,0,0,0,0,0,0,0,25,26,27,0,1,
1,1,1,1,1,1,1,1,1,1,1,1,1,1,1,
1,1,1,1,1,1,1,1,1,1,1,1,1,1,1,
1,1,1,1,1,1,1,1,1,1,1,1,1,1,1
</data>
 </layer>
 <objectgroup color="#323232" id="2" name="Solid" visible="0">
  <object id="2" x="0" y="256" width="480" height="96"/>
  <object id="24" x="0" y="0" width="448" height="32"/>
  <object id="27" x="0" y="32" width="32" height="224"/>
  <object id="59" x="448" y="0" width="32" height="256"/>
  <object id="218" x="320" y="224" width="96" height="32"/>
 </objectgroup>
 <objectgroup color="#1807ff" id="3" name="Objects" visible="0">
  <object id="4" type="man" x="64" y="224" width="32" height="32"/>
  <object id="44" type="beans" x="352" y="192" width="32" height="32"/>
 </objectgroup>
</map>
