<?xml version="1.0" encoding="UTF-8"?>
<map version="1.10" tiledversion="1.10.2" orientation="orthogonal" renderorder="right-down" width="15" height="11" tilewidth="32" tileheight="32" infinite="0" nextlayerid="4" nextobjectid="138">
 <editorsettings>
  <export target="../level_10.lua" format="lua"/>
 </editorsettings>
 <tileset firstgid="1" name="tileset" tilewidth="32" tileheight="32" tilecount="28" columns="7">
  <image source="../../sprites/ground/tileset.png" width="224" height="128"/>
 </tileset>
 <layer id="1" name="Ground" width="15" height="11">
  <data encoding="csv">
0,0,0,0,1,1,1,0,0,0,0,0,0,1,1,
0,0,0,0,0,0,0,0,0,0,0,0,0,1,1,
0,0,0,0,1,0,0,0,0,0,0,0,0,0,1,
0,0,0,0,0,0,0,1,0,0,0,0,0,0,0,
1,1,1,0,0,0,0,0,0,0,0,0,0,0,0,
0,0,0,0,0,0,0,0,0,1,1,1,1,0,0,
0,0,0,1,1,1,0,0,0,0,1,0,0,0,0,
0,0,0,1,1,1,0,0,1,1,1,0,0,0,0,
1,1,1,1,1,1,1,1,1,1,1,1,1,0,1,
1,1,1,1,1,1,1,1,1,1,1,1,1,1,1,
1,1,1,1,1,1,1,1,1,1,1,1,1,1,1
</data>
 </layer>
 <objectgroup color="#323232" id="2" name="Solid" visible="0">
  <object id="2" x="0" y="256" width="384" height="96"/>
  <object id="24" x="0" y="-32" width="480" height="32"/>
  <object id="27" x="-32" y="-32" width="32" height="288"/>
  <object id="59" x="480" y="-32" width="32" height="384"/>
  <object id="68" x="224" y="96" width="32" height="32"/>
  <object id="70" x="0" y="128" width="96" height="32"/>
  <object id="74" x="384" y="288" width="96" height="64"/>
  <object id="77" x="96" y="192" width="96" height="64"/>
  <object id="104" x="128" y="64" width="32" height="32"/>
  <object id="105" x="416" y="0" width="64" height="64"/>
  <object id="106" x="448" y="64" width="32" height="32"/>
  <object id="107" x="384" y="256" width="32" height="32"/>
  <object id="108" x="448" y="256" width="32" height="32"/>
  <object id="109" x="288" y="160" width="128" height="32"/>
  <object id="110" x="256" y="224" width="96" height="32"/>
  <object id="111" x="320" y="192" width="32" height="32"/>
  <object id="112" x="128" y="0" width="96" height="32"/>
 </objectgroup>
 <objectgroup color="#1807ff" id="3" name="Objects" visible="0">
  <object id="4" type="man" x="32" y="224" width="32" height="32"/>
  <object id="44" type="flag" x="352" y="224" width="32" height="32"/>
  <object id="93" type="spike" x="224" y="128" width="32" height="32"/>
  <object id="94" type="spike" x="288" y="192" width="32" height="32"/>
  <object id="95" type="spike" x="192" y="224" width="32" height="32"/>
  <object id="96" type="spike" x="224" y="224" width="32" height="32"/>
  <object id="97" type="spike" x="32" y="96" width="32" height="32"/>
  <object id="98" type="spike" x="32" y="64" width="32" height="32"/>
  <object id="99" type="spike" x="32" y="32" width="32" height="32"/>
  <object id="100" type="spike" x="32" y="0" width="32" height="32"/>
  <object id="101" type="shard" x="224" y="32" width="32" height="32"/>
  <object id="102" type="ghost" x="0" y="96" width="32" height="32"/>
  <object id="103" type="ghost" x="160" y="160" width="32" height="32"/>
  <object id="113" type="spike" x="128" y="160" width="32" height="32"/>
  <object id="114" type="spike" x="128" y="128" width="32" height="32"/>
  <object id="115" type="spike" x="128" y="96" width="32" height="32"/>
  <object id="121" type="spike" x="320" y="128" width="32" height="32"/>
  <object id="122" type="spike" x="320" y="96" width="32" height="32"/>
  <object id="123" type="spike" x="320" y="64" width="32" height="32"/>
  <object id="124" type="spike" x="192" y="96" width="32" height="32"/>
  <object id="125" type="spike" x="192" y="64" width="32" height="32"/>
  <object id="126" type="spike" x="192" y="32" width="32" height="32"/>
  <object id="127" type="ghost" x="352" y="128" width="32" height="32"/>
  <object id="128" type="spike" x="384" y="0" width="32" height="32"/>
  <object id="129" type="spike" x="384" y="32" width="32" height="32"/>
  <object id="130" type="spike" x="384" y="64" width="32" height="32"/>
  <object id="131" type="spike" x="416" y="64" width="32" height="32"/>
  <object id="132" type="spike" x="448" y="96" width="32" height="32"/>
  <object id="133" type="spike" x="448" y="128" width="32" height="32"/>
  <object id="134" type="spike" x="448" y="160" width="32" height="32"/>
  <object id="135" type="spike" x="448" y="192" width="32" height="32"/>
  <object id="136" type="spike" x="448" y="224" width="32" height="32"/>
  <object id="137" type="spike" x="416" y="256" width="32" height="32"/>
 </objectgroup>
</map>
