<?xml version="1.0" encoding="UTF-8"?>
<map version="1.10" tiledversion="1.10.2" orientation="orthogonal" renderorder="right-down" width="15" height="11" tilewidth="32" tileheight="32" infinite="0" nextlayerid="4" nextobjectid="184">
 <editorsettings>
  <export target="../level_12.lua" format="lua"/>
 </editorsettings>
 <tileset firstgid="1" name="tileset" tilewidth="32" tileheight="32" tilecount="28" columns="7">
  <image source="../../sprites/ground/tileset.png" width="224" height="128"/>
 </tileset>
 <layer id="1" name="Ground" width="15" height="11">
  <data encoding="csv">
1,0,0,0,0,0,0,0,0,0,0,0,0,0,0,
0,0,0,0,0,0,0,0,0,0,0,0,0,0,0,
0,0,0,0,0,0,1,0,0,1,0,0,0,0,0,
0,0,0,1,0,0,0,0,0,1,0,0,0,1,1,
1,0,0,0,0,0,0,0,0,1,1,1,1,1,1,
0,0,0,0,0,0,0,0,0,1,1,1,1,1,1,
1,1,1,1,1,1,1,1,0,1,1,1,1,1,1,
0,0,0,0,1,0,0,0,0,0,0,0,0,0,1,
1,1,1,0,1,0,1,1,1,1,1,1,1,0,1,
1,1,1,0,0,0,0,0,0,0,0,0,0,0,1,
1,1,1,1,1,1,1,1,1,1,1,1,1,1,1
</data>
 </layer>
 <objectgroup color="#323232" id="2" name="Solid" visible="0">
  <object id="2" x="0" y="256" width="96" height="96"/>
  <object id="24" x="0" y="-32" width="480" height="32"/>
  <object id="27" x="-32" y="-32" width="32" height="288"/>
  <object id="59" x="480" y="-32" width="32" height="384"/>
  <object id="68" x="288" y="64" width="32" height="160"/>
  <object id="77" x="0" y="192" width="256" height="32"/>
  <object id="104" x="0" y="0" width="32" height="32"/>
  <object id="109" x="320" y="128" width="160" height="96"/>
  <object id="138" x="0" y="128" width="32" height="32"/>
  <object id="141" x="96" y="320" width="384" height="32"/>
  <object id="167" x="96" y="96" width="32" height="32"/>
  <object id="168" x="192" y="64" width="32" height="32"/>
  <object id="169" x="416" y="96" width="64" height="32"/>
  <object id="170" x="192" y="256" width="224" height="32"/>
  <object id="171" x="128" y="224" width="32" height="64"/>
  <object id="173" x="448" y="224" width="32" height="96"/>
 </objectgroup>
 <objectgroup color="#1807ff" id="3" name="Objects" visible="0">
  <object id="4" type="man" x="32" y="224" width="32" height="32"/>
  <object id="44" type="flag" x="448" y="64" width="32" height="32"/>
  <object id="153" type="spike" x="224" y="224" width="32" height="32"/>
  <object id="155" type="spike" x="352" y="96" width="32" height="32"/>
  <object id="156" type="spike" x="320" y="96" width="32" height="32"/>
  <object id="158" type="spike" x="384" y="96" width="32" height="32"/>
  <object id="163" type="shard" x="0" y="64" width="32" height="32"/>
  <object id="164" type="shard" x="192" y="128" width="32" height="32"/>
  <object id="165" type="shard" x="352" y="32" width="32" height="32"/>
  <object id="174" type="spike" x="192" y="160" width="32" height="32"/>
  <object id="175" type="spike" x="128" y="64" width="32" height="32"/>
  <object id="176" type="spike" x="160" y="64" width="32" height="32"/>
  <object id="177" type="spike" x="224" y="64" width="32" height="32"/>
  <object id="178" type="spike" x="256" y="64" width="32" height="32"/>
  <object id="179" type="spike" x="0" y="160" width="32" height="32"/>
  <object id="180" type="spike" x="32" y="160" width="32" height="32"/>
  <object id="181" type="ghost" x="192" y="224" width="32" height="32"/>
  <object id="182" type="ghost" x="256" y="288" width="32" height="32"/>
  <object id="183" type="ghost" x="64" y="160" width="32" height="32"/>
 </objectgroup>
</map>
