<?xml version="1.0" encoding="UTF-8"?>
<map version="1.10" tiledversion="1.10.2" orientation="orthogonal" renderorder="right-down" width="15" height="11" tilewidth="32" tileheight="32" infinite="0" nextlayerid="4" nextobjectid="224">
 <editorsettings>
  <export target="../level_17.lua" format="lua"/>
 </editorsettings>
 <tileset firstgid="1" name="tileset" tilewidth="32" tileheight="32" tilecount="28" columns="7">
  <image source="../../sprites/ground/tileset.png" width="224" height="128"/>
 </tileset>
 <layer id="1" name="Ground" width="15" height="11">
  <data encoding="csv">
0,0,0,0,0,0,0,0,0,0,0,0,0,0,0,
0,0,0,0,0,0,0,0,0,0,0,0,0,0,0,
0,0,0,0,0,0,0,0,0,0,0,0,0,0,0,
0,0,0,0,0,0,0,0,0,0,0,0,0,0,0,
0,0,0,0,0,0,0,0,0,0,0,0,0,0,0,
0,1,1,1,1,1,0,0,0,0,0,21,0,0,0,
0,0,0,0,0,0,0,0,0,0,22,23,23,23,24,
0,0,0,0,0,0,0,0,1,1,1,1,1,1,1,
1,1,1,1,1,1,1,1,1,1,1,1,1,1,1,
1,1,1,1,1,1,1,1,1,1,1,1,1,1,1,
1,1,1,1,1,1,1,1,1,1,1,1,1,1,1
</data>
 </layer>
 <objectgroup color="#323232" id="2" name="Solid" visible="0">
  <object id="2" x="0" y="256" width="480" height="96"/>
  <object id="24" x="0" y="-32" width="480" height="32"/>
  <object id="27" x="-32" y="-32" width="32" height="384"/>
  <object id="59" x="480" y="-32" width="32" height="384"/>
  <object id="217" x="32" y="160" width="160" height="32"/>
  <object id="218" x="256" y="224" width="224" height="32"/>
  <object id="219" x="320" y="192" width="160" height="32"/>
  <object id="220" x="352" y="184" width="32" height="8"/>
  <object id="222" x="355" y="160" width="26" height="8"/>
  <object id="223" x="354" y="168" width="28" height="16"/>
 </objectgroup>
 <objectgroup color="#1807ff" id="3" name="Objects" visible="0">
  <object id="4" type="man" x="32" y="224" width="32" height="32"/>
  <object id="44" type="jones" x="416" y="160" width="32" height="32"/>
  <object id="215" type="beans" x="64" y="128" width="32" height="32"/>
  <object id="221" type="glassdoor" x="0" y="224" width="32" height="32"/>
 </objectgroup>
</map>
