<?xml version="1.0" encoding="UTF-8"?>
<map version="1.10" tiledversion="1.10.2" orientation="orthogonal" renderorder="right-down" width="15" height="11" tilewidth="32" tileheight="32" infinite="0" nextlayerid="4" nextobjectid="34">
 <editorsettings>
  <export target="../level_2.lua" format="lua"/>
 </editorsettings>
 <tileset firstgid="1" name="tileset" tilewidth="32" tileheight="32" tilecount="28" columns="7">
  <image source="../../sprites/ground/tileset.png" width="224" height="128"/>
 </tileset>
 <layer id="1" name="Ground" width="15" height="11">
  <data encoding="csv">
0,0,0,0,0,0,0,0,0,0,0,0,0,0,0,
0,0,0,0,0,0,0,0,0,0,0,0,0,0,0,
0,0,0,0,0,0,0,0,0,0,0,0,0,0,0,
0,0,0,0,0,0,0,0,0,0,0,0,0,0,0,
0,0,0,0,0,0,0,0,0,0,0,0,1,1,1,
0,0,0,0,0,0,0,0,1,1,1,0,1,1,1,
0,0,0,0,1,1,1,0,0,0,0,0,1,1,1,
0,0,0,0,0,0,0,0,0,0,0,0,1,1,1,
1,1,1,0,0,0,0,0,0,0,0,0,1,1,1,
1,1,1,0,0,0,0,0,0,0,0,0,1,1,1,
1,1,1,0,0,0,0,0,0,0,0,0,1,1,1
</data>
 </layer>
 <objectgroup color="#323232" id="2" name="Solid" visible="0">
  <object id="2" x="0" y="256" width="96" height="96"/>
  <object id="24" x="0" y="-32" width="480" height="32"/>
  <object id="26" x="480" y="-32" width="32" height="160"/>
  <object id="27" x="-32" y="-32" width="32" height="288"/>
  <object id="28" x="384" y="128" width="96" height="224"/>
  <object id="32" x="128" y="192" width="96" height="32"/>
  <object id="33" x="256" y="160" width="96" height="32"/>
 </objectgroup>
 <objectgroup color="#1807ff" id="3" name="Objects" visible="0">
  <object id="3" type="flag" x="416" y="96" width="32" height="32"/>
  <object id="4" type="man" x="32" y="224" width="32" height="32"/>
  <object id="29" type="ghost" x="160" y="160" width="32" height="32"/>
  <object id="30" type="ghost" x="288" y="128" width="32" height="32"/>
  <object id="31" type="shard" x="224" y="160" width="32" height="32"/>
 </objectgroup>
</map>
