<?xml version="1.0" encoding="UTF-8"?>
<map version="1.10" tiledversion="1.10.2" orientation="orthogonal" renderorder="right-down" width="15" height="11" tilewidth="32" tileheight="32" infinite="0" nextlayerid="4" nextobjectid="215">
 <editorsettings>
  <export target="level_15.json" format="json"/>
 </editorsettings>
 <tileset firstgid="1" name="tileset" tilewidth="32" tileheight="32" tilecount="28" columns="7">
  <image source="../sprites/ground/tileset.png" width="224" height="128"/>
 </tileset>
 <layer id="1" name="Ground" width="15" height="11">
  <data encoding="csv">
0,0,0,0,0,0,0,0,0,0,0,0,0,0,0,
0,0,0,0,0,0,0,0,0,0,0,0,0,0,0,
0,0,1,1,0,0,1,0,0,1,0,0,1,1,1,
0,0,0,0,0,0,0,0,0,0,0,0,0,0,1,
1,0,0,0,0,1,1,1,0,0,0,0,0,0,1,
0,0,0,0,0,1,0,1,0,0,0,0,0,0,1,
1,1,1,1,1,0,0,0,1,1,1,1,0,0,1,
0,0,0,0,0,0,0,0,0,0,0,0,0,0,0,
1,1,1,0,0,0,1,0,0,0,0,1,1,1,1,
1,1,1,0,0,0,0,0,0,0,0,0,0,0,1,
1,1,1,1,1,0,0,0,0,1,1,1,1,1,1
</data>
 </layer>
 <objectgroup color="#323232" id="2" name="Solid" visible="0">
  <object id="2" x="0" y="256" width="96" height="96"/>
  <object id="24" x="0" y="-32" width="480" height="32"/>
  <object id="27" x="-32" y="-32" width="32" height="288"/>
  <object id="59" x="480" y="-32" width="32" height="384"/>
  <object id="104" x="192" y="256" width="32" height="32"/>
  <object id="109" x="288" y="320" width="160" height="32"/>
  <object id="167" x="192" y="64" width="32" height="32"/>
  <object id="168" x="64" y="64" width="64" height="32"/>
  <object id="171" x="96" y="320" width="64" height="32"/>
  <object id="187" x="288" y="64" width="32" height="32"/>
  <object id="188" x="0" y="128" width="32" height="32"/>
  <object id="189" x="0" y="192" width="160" height="32"/>
  <object id="190" x="160" y="128" width="96" height="32"/>
  <object id="191" x="160" y="160" width="32" height="32"/>
  <object id="192" x="224" y="160" width="32" height="32"/>
  <object id="193" x="256" y="192" width="128" height="32"/>
  <object id="194" x="352" y="256" width="96" height="32"/>
  <object id="195" x="448" y="256" width="32" height="96"/>
  <object id="196" x="384" y="64" width="96" height="32"/>
  <object id="197" x="448" y="96" width="32" height="128"/>
 </objectgroup>
 <objectgroup color="#1807ff" id="3" name="Objects" visible="0">
  <object id="4" type="man" x="32" y="224" width="32" height="32"/>
  <object id="44" type="flag" x="416" y="32" width="32" height="32"/>
  <object id="156" type="spike" x="320" y="64" width="32" height="32"/>
  <object id="163" type="shard" x="128" y="128" width="32" height="32"/>
  <object id="165" type="shard" x="320" y="96" width="32" height="32"/>
  <object id="175" type="spike" x="128" y="64" width="32" height="32"/>
  <object id="176" type="spike" x="160" y="64" width="32" height="32"/>
  <object id="177" type="spike" x="224" y="64" width="32" height="32"/>
  <object id="180" type="spike" x="0" y="160" width="32" height="32"/>
  <object id="181" type="ghost" x="448" y="32" width="32" height="32"/>
  <object id="184" type="shard" x="0" y="64" width="32" height="32"/>
  <object id="185" type="shard" x="224" y="32" width="32" height="32"/>
  <object id="186" type="spike" x="128" y="160" width="32" height="32"/>
  <object id="198" type="spike" x="352" y="64" width="32" height="32"/>
  <object id="199" type="spike" x="256" y="64" width="32" height="32"/>
  <object id="200" type="shard" x="192" y="192" width="32" height="32"/>
  <object id="201" type="shard" x="384" y="128" width="32" height="32"/>
  <object id="202" type="shard" x="96" y="256" width="32" height="32"/>
  <object id="203" type="spike" x="96" y="288" width="32" height="32"/>
  <object id="204" type="spike" x="320" y="288" width="32" height="32"/>
  <object id="205" type="spike" x="416" y="224" width="32" height="32"/>
  <object id="206" type="spike" x="416" y="192" width="32" height="32"/>
  <object id="207" type="spike" x="416" y="160" width="32" height="32"/>
  <object id="208" type="spike" x="416" y="128" width="32" height="32"/>
  <object id="209" type="spike" x="416" y="96" width="32" height="32"/>
  <object id="210" type="spike" x="320" y="160" width="32" height="32"/>
  <object id="211" type="spike" x="256" y="160" width="32" height="32"/>
  <object id="212" type="ghost" x="32" y="160" width="32" height="32"/>
  <object id="213" type="ghost" x="448" y="224" width="32" height="32"/>
  <object id="214" type="ghost" x="288" y="288" width="32" height="32"/>
 </objectgroup>
</map>
