<?xml version="1.0" encoding="UTF-8"?>
<map version="1.10" tiledversion="1.10.2" orientation="orthogonal" renderorder="right-down" width="15" height="11" tilewidth="32" tileheight="32" infinite="0" nextlayerid="4" nextobjectid="16">
 <editorsettings>
  <export target="../level_0.lua" format="lua"/>
 </editorsettings>
 <tileset firstgid="1" name="tileset" tilewidth="32" tileheight="32" tilecount="28" columns="7">
  <image source="../sprites/ground/tileset.png" width="224" height="128"/>
 </tileset>
 <layer id="1" name="Ground" width="15" height="11">
  <data encoding="csv">
0,0,0,0,0,0,0,0,0,0,0,0,0,0,0,
0,0,0,0,0,0,0,0,0,0,0,0,0,0,0,
0,0,0,0,0,0,0,0,0,0,0,0,0,0,0,
0,0,0,0,0,0,0,0,0,0,0,0,0,0,0,
0,0,0,0,0,0,0,0,0,0,0,0,0,0,0,
0,0,0,0,0,0,0,0,0,0,0,0,0,0,0,
0,0,0,0,0,0,0,0,0,0,0,0,0,0,0,
1,1,1,1,1,1,1,1,1,1,1,1,1,1,1,
1,2,3,4,1,16,17,18,19,20,1,5,6,7,1,
1,9,10,11,1,1,1,1,1,1,1,12,13,14,1,
1,1,1,1,1,1,1,1,1,1,1,1,1,1,1
</data>
 </layer>
 <objectgroup id="2" name="Solid" visible="0">
  <object id="2" x="0" y="224" width="480" height="128"/>
  <object id="13" x="-32" y="-32" width="32" height="256"/>
  <object id="14" x="0" y="-32" width="480" height="32"/>
  <object id="15" x="480" y="-32" width="32" height="256"/>
 </objectgroup>
 <objectgroup id="3" name="Objects" visible="0">
  <object id="3" type="flag" x="384" y="192" width="32" height="32"/>
  <object id="4" type="man" x="64" y="192" width="32" height="32"/>
 </objectgroup>
</map>
