<?xml version="1.0" encoding="UTF-8"?>
<map version="1.10" tiledversion="1.10.2" orientation="orthogonal" renderorder="right-down" width="15" height="11" tilewidth="32" tileheight="32" infinite="0" nextlayerid="4" nextobjectid="167">
 <editorsettings>
  <export target="level_12.json" format="json"/>
 </editorsettings>
 <tileset firstgid="1" name="tileset" tilewidth="32" tileheight="32" tilecount="28" columns="7">
  <image source="../sprites/ground/tileset.png" width="224" height="128"/>
 </tileset>
 <layer id="1" name="Ground" width="15" height="11">
  <data encoding="csv">
0,0,0,0,0,0,0,1,0,0,0,0,0,0,0,
0,0,0,0,0,0,0,1,0,0,0,0,0,0,0,
0,0,1,1,0,0,0,1,0,0,1,1,0,0,0,
0,0,0,0,0,0,0,1,0,0,0,0,0,0,0,
1,0,0,0,0,0,0,1,1,0,0,0,0,0,0,
0,0,0,0,0,0,0,0,0,0,0,0,0,0,0,
0,0,1,1,1,0,0,0,0,0,1,1,0,0,0,
0,0,1,1,0,0,0,0,0,0,0,1,0,0,0,
1,0,1,1,1,1,1,1,1,1,1,1,1,1,1,
1,0,1,1,1,1,1,1,1,1,1,1,1,1,1,
1,0,1,1,1,1,1,1,1,1,1,1,1,1,1
</data>
 </layer>
 <objectgroup color="#323232" id="2" name="Solid" visible="0">
  <object id="2" x="0" y="256" width="32" height="96"/>
  <object id="24" x="0" y="-32" width="480" height="32"/>
  <object id="27" x="-32" y="-32" width="32" height="288"/>
  <object id="59" x="480" y="-32" width="32" height="384"/>
  <object id="68" x="224" y="0" width="32" height="160"/>
  <object id="77" x="64" y="192" width="64" height="64"/>
  <object id="104" x="64" y="64" width="64" height="32"/>
  <object id="109" x="320" y="64" width="64" height="32"/>
  <object id="110" x="352" y="224" width="32" height="32"/>
  <object id="111" x="320" y="192" width="64" height="32"/>
  <object id="138" x="0" y="128" width="32" height="32"/>
  <object id="139" x="128" y="192" width="32" height="32"/>
  <object id="140" x="256" y="128" width="32" height="32"/>
  <object id="141" x="64" y="256" width="416" height="96"/>
 </objectgroup>
 <objectgroup color="#1807ff" id="3" name="Objects" visible="0">
  <object id="4" type="man" x="0" y="224" width="32" height="32"/>
  <object id="44" type="flag" x="416" y="224" width="32" height="32"/>
  <object id="142" type="spike" x="96" y="160" width="32" height="32"/>
  <object id="143" type="spike" x="128" y="160" width="32" height="32"/>
  <object id="144" type="spike" x="96" y="128" width="32" height="32"/>
  <object id="145" type="spike" x="128" y="128" width="32" height="32"/>
  <object id="146" type="spike" x="96" y="96" width="32" height="32"/>
  <object id="147" type="spike" x="128" y="96" width="32" height="32"/>
  <object id="148" type="spike" x="128" y="64" width="32" height="32"/>
  <object id="149" type="spike" x="160" y="192" width="32" height="32"/>
  <object id="150" type="spike" x="128" y="224" width="32" height="32"/>
  <object id="151" type="spike" x="160" y="224" width="32" height="32"/>
  <object id="152" type="spike" x="32" y="256" width="32" height="32"/>
  <object id="153" type="spike" x="320" y="224" width="32" height="32"/>
  <object id="154" type="spike" x="192" y="64" width="32" height="32"/>
  <object id="155" type="spike" x="352" y="96" width="32" height="32"/>
  <object id="156" type="spike" x="352" y="128" width="32" height="32"/>
  <object id="157" type="spike" x="352" y="160" width="32" height="32"/>
  <object id="158" type="spike" x="384" y="64" width="32" height="32"/>
  <object id="159" type="spike" x="448" y="64" width="32" height="32"/>
  <object id="160" type="spike" x="416" y="192" width="32" height="32"/>
  <object id="161" type="ghost" x="64" y="160" width="32" height="32"/>
  <object id="162" type="ghost" x="224" y="224" width="32" height="32"/>
  <object id="163" type="shard" x="0" y="64" width="32" height="32"/>
  <object id="164" type="shard" x="32" y="128" width="32" height="32"/>
  <object id="165" type="shard" x="256" y="32" width="32" height="32"/>
  <object id="166" type="shard" x="320" y="128" width="32" height="32"/>
 </objectgroup>
</map>
